icons-dark/actions/32/zoom-1-to-2.svg

<svg version="1.1" viewBox="0 0 32 32" xmlns="http://www.w3.org/2000/svg">
 <defs>
  <style id="current-color-scheme" type="text/css">.ColorScheme-Text {
        color:#dedede;
      }</style>
 </defs>
 <path class="ColorScheme-Text" d="m19 7v18h6v-18h-6zm1 1h4v16h-4v-16zm-13 3v10h5v-10h-5zm1 1h3v8h-3v-8zm6 1v6l3-3-3-3z" fill="currentColor"/>
 <path class="ColorScheme-Text" d="m7 4c-1.662 0-3 1.338-3 3v2h1v-2c0-1.108 0.892-2 2-2h2v-1zm16 0v1h2c1.108 0 2 0.892 2 2v2h1v-2c0-1.662-1.338-3-3-3zm-19 19v2c0 1.662 1.338 3 3 3h2v-1h-2c-1.108 0-2-0.892-2-2v-2zm23 0v2c0 1.108-0.892 2-2 2h-2v1h2c1.662 0 3-1.338 3-3v-2z" fill="currentColor"/>
</svg>

<svg xmlns="http://www.w3.org/2000/svg" viewBox="0 0 32 32">
  <defs id="defs3051">
    <style type="text/css" id="current-color-scheme">
      .ColorScheme-Text {
        color:#ffffff;
      }
      </style>
  </defs>
 <path style="fill:currentColor;fill-opacity:1;stroke:none" 
       d="M 4 4 L 4 9 L 5 9 L 5 5 L 9 5 L 9 4 L 4 4 z M 23 4 L 23 5 L 27 5 L 27 9 L 28 9 L 28 4 L 23 4 z M 19 7 L 19 25 L 25 25 L 25 7 L 19 7 z M 7 11 L 7 21 L 12 21 L 12 11 L 7 11 z M 14 13 L 14 19 L 17 16 L 14 13 z M 4 23 L 4 28 L 9 28 L 9 27 L 5 27 L 5 23 L 4 23 z M 27 23 L 27 27 L 23 27 L 23 28 L 28 28 L 28 23 L 27 23 z "
     class="ColorScheme-Text"
     />
</svg>
